X: 6
T:St. Anne's Reel
M:C|
L:1/8
R:Reel [French-Canadian]
K:D
de[|:fedf edcB|A2FA DAFA|B2GB EBGB|A2FA DAFA|!
fedf edcB|A2FA DAFA|B2ed cABc|dedc d2de:|!
|:f2fe fdef|Bggf g2gf|edcB ABce|baa^g a2a=g|!
f2fe fdef|Bggf g2gf|edcB ABcd|eddc d2de:|]!
